packages/sources/icons/src/vitamix/gift-line.svg

<svg width="16" height="16" viewBox="0 0 16 16" fill="none" xmlns="http://www.w3.org/2000/svg">
<path fill-rule="evenodd" clip-rule="evenodd" d="M9.66667 1.33333C10.467 1.33306 11.2117 1.74301 11.6395 2.41942C12.0673 3.09584 12.1186 3.94432 11.7753 4.66733L14 4.66667C14.3682 4.66667 14.6667 4.96514 14.6667 5.33333V8C14.6667 8.36819 14.3682 8.66667 14 8.66667H13.3333V14C13.3333 14.3682 13.0349 14.6667 12.6667 14.6667H3.33334C2.96515 14.6667 2.66667 14.3682 2.66667 14V8.66667H2C1.63181 8.66667 1.33334 8.36819 1.33334 8V5.33333C1.33334 4.96514 1.63181 4.66667 2 4.66667L4.22467 4.66733C3.73421 3.63707 4.0608 2.40321 4.99674 1.7505C5.93267 1.09779 7.20337 1.21772 8.00067 2.034C8.43846 1.58484 9.03945 1.33208 9.66667 1.33333ZM12 8.66667H4V13.3333H12V8.66667ZM2.66667 6H13.3333V7.33333H2.66667V6ZM6.33341 2.66667C5.8 2.66693 5.3607 3.08582 5.33506 3.61861C5.30943 4.1514 5.70649 4.61053 6.23741 4.662L6.33341 4.66667H7.33341V3.66667C7.33339 3.15159 6.94211 2.72078 6.42941 2.67133L6.33341 2.66667ZM9.57067 2.67133L9.66667 2.66667L9.76267 2.67133C10.2752 2.72102 10.6662 3.15176 10.6662 3.66667C10.6662 4.18158 10.2752 4.61231 9.76267 4.662L9.66667 4.66667H8.66667V3.66667L8.67067 3.57067C8.71669 3.09409 9.09406 2.717 9.57067 2.67133Z" fill="#001018"/>
</svg>

<svg width="16" height="16" fill="none" xmlns="http://www.w3.org/2000/svg"><path fill-rule="evenodd" clip-rule="evenodd" d="M9.667 1.333a2.333 2.333 0 0 1 2.108 3.334H14c.368 0 .667.298.667.666V8a.667.667 0 0 1-.667.667h-.667V14a.667.667 0 0 1-.666.667H3.333A.667.667 0 0 1 2.667 14V8.667H2A.667.667 0 0 1 1.333 8V5.333c0-.368.299-.666.667-.666h2.225A2.333 2.333 0 0 1 8 2.034a2.32 2.32 0 0 1 1.666-.7zM12 8.667H4v4.666h8V8.667zM2.667 6h10.666v1.333H2.667V6zm3.666-3.333a1 1 0 0 0-.096 1.995l.096.005h1v-1a1 1 0 0 0-.904-.996l-.096-.004zm3.238.004.096-.004.096.004a1 1 0 0 1 0 1.991l-.096.005h-1v-1l.004-.096a1 1 0 0 1 .9-.9z" fill="#001018"/></svg>
